assets/img/discord.svg

<svg width="32" height="37" viewBox="0 0 32 37" fill="none" xmlns="http://www.w3.org/2000/svg">
  <g clip-path="url(#clip0)">
    <path fill-rule="evenodd" clip-rule="evenodd" d="M3.74643 0H28.2353C30.3004 0 31.9817 1.68132 32 3.74643V36.2398L28.0525 32.8224L25.8412 30.7938L23.502 28.6373L24.4706 31.9817H3.74643C1.68132 31.9817 0 30.3004 0 28.2353V3.74643C0 1.68132 1.68132 0 3.74643 0ZM19.9749 22.2044C20.5231 22.8806 21.181 23.6665 21.181 23.6665C25.0074 23.5453 26.5866 21.1768 26.7421 20.9435C26.7507 20.9306 26.755 20.9242 26.755 20.9252C26.755 15.0954 24.1233 10.3621 24.1233 10.3621C21.51 8.40662 19.0063 8.46144 19.0063 8.46144L18.7504 8.75385C21.8572 9.68589 23.3009 11.0565 23.3009 11.0565C21.4003 10.0331 19.5362 9.52141 17.8001 9.32038C16.4843 9.17418 15.2233 9.21073 14.1085 9.35693C14.0128 9.35693 13.931 9.37086 13.8388 9.38655C13.8254 9.38884 13.8117 9.39116 13.7978 9.39348C13.1582 9.46658 11.6048 9.68589 9.64933 10.5448C8.97315 10.8372 8.57109 11.0565 8.57109 11.0565C8.57109 11.0565 10.0697 9.61278 13.3592 8.68075L13.1765 8.46144C13.1765 8.46144 10.691 8.40662 8.05939 10.3621C8.05939 10.3621 5.42775 15.0954 5.42775 20.9252C5.42775 20.9252 6.96287 23.5568 11.0017 23.6847C11.0017 23.6847 11.6779 22.8806 12.2261 22.1862C9.90519 21.4917 9.02798 20.048 9.02798 20.048C9.02798 20.048 9.21073 20.1759 9.53968 20.3586C9.55098 20.3586 9.56227 20.3656 9.57788 20.3753C9.58753 20.3812 9.59882 20.3882 9.61278 20.3952C9.6402 20.4135 9.66761 20.4272 9.69502 20.4409C9.72244 20.4546 9.74985 20.4683 9.77726 20.4866C10.2341 20.7424 10.691 20.9434 11.1114 21.1079C11.8606 21.4186 12.7561 21.6927 13.7978 21.8938C15.1685 22.1496 16.7767 22.241 18.5311 21.912C19.39 21.7476 20.2673 21.51 21.181 21.1262C21.8207 20.8886 22.5334 20.5414 23.2827 20.048C23.2827 20.048 22.3689 21.5283 19.9749 22.2044ZM17.4895 17.2152C17.4895 16.1004 18.3118 15.2049 19.3535 15.2049C20.3769 15.2049 21.2176 16.1004 21.2176 17.2152C21.2176 18.33 20.3952 19.2255 19.3535 19.2255C18.3301 19.2255 17.4895 18.33 17.4895 17.2152ZM10.819 17.2152C10.819 16.1004 11.6414 15.2049 12.6831 15.2049C13.7247 15.2049 14.5654 16.1004 14.5471 17.2152C14.5471 18.33 13.7247 19.2255 12.6831 19.2255C11.6596 19.2255 10.819 18.33 10.819 17.2152Z" fill="#808080"/>
  </g>
  <defs>
    <clipPath id="clip0">
      <rect width="32" height="36.2398" fill="white"/>
    </clipPath>
  </defs>
</svg>

<svg xmlns="http://www.w3.org/2000/svg" width="32" height="37" fill="none"><g clip-path="url(#A)"><path fill-rule="evenodd" d="M3.746 0h24.489A3.78 3.78 0 0 1 32 3.746V36.24l-3.948-3.417-2.211-2.029-2.339-2.157.969 3.344H3.746C1.681 31.982 0 30.3 0 28.235V3.746C0 1.681 1.681 0 3.746 0zm16.228 22.204l1.206 1.462c3.826-.121 5.406-2.49 5.561-2.723l.013-.018c0-5.83-2.632-10.563-2.632-10.563-2.613-1.955-5.117-1.901-5.117-1.901l-.256.292c3.107.932 4.551 2.303 4.551 2.303A15.19 15.19 0 0 0 17.8 9.32c-1.316-.146-2.577-.11-3.692.037-.096 0-.178.014-.27.03l-.041.007c-.64.073-2.193.292-4.148 1.151-.676.292-1.078.512-1.078.512s1.499-1.444 4.788-2.376l-.183-.219s-2.485-.055-5.117 1.901c0 0-2.632 4.733-2.632 10.563 0 0 1.535 2.632 5.574 2.759l1.224-1.498c-2.321-.694-3.198-2.138-3.198-2.138a6.41 6.41 0 0 0 .512.311c.011 0 .023.007.038.017.01.006.021.013.035.02.027.018.055.032.082.046s.055.027.082.046c.457.256.914.457 1.334.621.749.311 1.645.585 2.686.786 1.371.256 2.979.347 4.733.018.859-.164 1.736-.402 2.65-.786a10.46 10.46 0 0 0 2.102-1.078s-.914 1.48-3.308 2.156zm-2.485-4.989c0-1.115.822-2.01 1.864-2.01 1.023 0 1.864.896 1.864 2.01s-.822 2.01-1.864 2.01c-1.023 0-1.864-.896-1.864-2.01zm-6.67 0c0-1.115.822-2.01 1.864-2.01s1.882.896 1.864 2.01c0 1.115-.822 2.01-1.864 2.01-1.024 0-1.864-.896-1.864-2.01z" fill="gray"/></g><defs><clipPath id="A"><path fill="#fff" d="M0 0h32v36.24H0z"/></clipPath></defs></svg>
